svgs/inpost.svg

<svg width="192" height="192" viewBox="0 0 192 192" fill="none" xmlns="http://www.w3.org/2000/svg">
<path d="M96 96C96 130 140 144.5 140 144.5C140 144.5 92 136 92 96C92 56 140 48 140 48C140 48 96 62 96 96ZM96 96C96 106 108 107 108 107L99.3045 111.5" stroke="black" stroke-width="12" stroke-linecap="round" stroke-linejoin="round"/>
<path d="M58 100C66 100 74 96 74 96C74 96 66 92 58 92C50 92 42 96 42 96C42 96 50 100 58 100Z" stroke="black" stroke-width="6" stroke-linecap="round" stroke-linejoin="round"/>
<path d="M67.3564 96L49 95.7942" stroke="black" stroke-width="6" stroke-linecap="round" stroke-linejoin="round"/>
<path d="M75 128L59 137" stroke="black" stroke-width="6" stroke-linecap="round" stroke-linejoin="round"/>
<path d="M96.9282 161.144C100.928 154.215 101.464 145.287 101.464 145.287C101.464 145.287 94 150.215 90 157.144C86 164.072 85.4641 173 85.4641 173C85.4641 173 92.9282 168.072 96.9282 161.144Z" stroke="black" stroke-width="6" stroke-linecap="round" stroke-linejoin="round"/>
<path d="M89.9995 34.8564C93.9995 41.7846 101.464 46.7128 101.464 46.7128C101.464 46.7128 100.928 37.7846 96.9277 30.8564C92.9277 23.9282 85.4636 19 85.4636 19C85.4636 19 85.9995 27.9282 89.9995 34.8564Z" stroke="black" stroke-width="6" stroke-linecap="round" stroke-linejoin="round"/>
<path d="M98 41L89 25" stroke="black" stroke-width="6" stroke-linecap="round" stroke-linejoin="round"/>
<path d="M98 151L89 167" stroke="black" stroke-width="6" stroke-linecap="round" stroke-linejoin="round"/>
<path d="M68.4892 136.469C75.4174 132.469 80.3456 125.005 80.3456 125.005C80.3456 125.005 71.4174 125.541 64.4892 129.541C57.561 133.541 52.6328 141.005 52.6328 141.005C52.6328 141.005 61.561 140.469 68.4892 136.469Z" stroke="black" stroke-width="6" stroke-linecap="round" stroke-linejoin="round"/>
<path d="M68.4892 55.5408C75.4174 59.5408 80.3456 67.0049 80.3456 67.0049C80.3456 67.0049 71.4174 66.469 64.4892 62.469C57.561 58.469 52.6328 51.0049 52.6328 51.0049C52.6328 51.0049 61.561 51.5408 68.4892 55.5408Z" stroke="black" stroke-width="6" stroke-linecap="round" stroke-linejoin="round"/>
<path d="M74.7942 63.8564L59 54.5" stroke="black" stroke-width="6" stroke-linecap="round" stroke-linejoin="round"/>
</svg>

<svg xmlns="http://www.w3.org/2000/svg" width="192" height="192" fill="none" viewBox="0 0 192 192"><path stroke="#000" stroke-linecap="round" stroke-linejoin="round" stroke-width="12" d="M96 96c0 34 44 48.5 44 48.5S92 136 92 96s48-48 48-48-44 14-44 48m0 0c0 10 12 11 12 11l-8.695 4.5"/><path stroke="#000" stroke-linecap="round" stroke-linejoin="round" stroke-width="6" d="M58 100c8 0 16-4 16-4s-8-4-16-4-16 4-16 4 8 4 16 4m9.356-4L49 95.794M75 128l-16 9m37.928 24.144c4-6.929 4.536-15.857 4.536-15.857S94 150.215 90 157.144C86 164.072 85.464 173 85.464 173s7.464-4.928 11.464-11.856M90 34.856c4 6.929 11.464 11.857 11.464 11.857s-.536-8.928-4.536-15.857C92.928 23.928 85.464 19 85.464 19s.535 8.928 4.535 15.856M98 41l-9-16m9 126-9 16m-20.51-30.531c6.927-4 11.856-11.464 11.856-11.464s-8.929.536-15.857 4.536c-6.928 4-11.856 11.464-11.856 11.464s8.928-.536 15.856-4.536m.001-80.929c6.927 4 11.856 11.465 11.856 11.465s-8.929-.536-15.857-4.536c-6.928-4-11.856-11.464-11.856-11.464s8.928.536 15.856 4.536m6.305 8.315L59 54.5"/></svg>
